packages/core/src/svgs/cusdc.svg

<svg width="24" height="24" viewBox="0 0 24 24" fill="none" xmlns="http://www.w3.org/2000/svg">
<g clip-path="url(#clip0_31_8920)">
<path d="M0 0H24V24H0V0Z" fill="#F0F3FA"/>
<path d="M10.9714 8.14307C10.1457 8.39279 9.42349 8.90392 8.91336 9.59954C8.40324 10.2952 8.13284 11.1376 8.14285 12.0002C8.14285 13.8431 9.34285 15.3902 10.9714 15.8574V15.1159C10.3369 14.8804 9.79063 14.4547 9.40711 13.897C9.02359 13.3394 8.82154 12.677 8.82856 12.0002C8.82856 10.5559 9.72856 9.32592 10.9714 8.88449V8.14307ZM13.0286 15.1159C13.663 14.8804 14.2093 14.4547 14.5929 13.897C14.9764 13.3394 15.1784 12.677 15.1714 12.0002C15.1714 10.5559 14.2714 9.32592 13.0286 8.88449V8.14307C13.8542 8.39279 14.5765 8.90392 15.0866 9.59954C15.5967 10.2952 15.8671 11.1376 15.8571 12.0002C15.8571 13.8431 14.6571 15.3902 13.0286 15.8574V15.1159Z" fill="#657786"/>
<path d="M11.5715 9.42871H12.4286V9.90014C12.7147 9.96215 12.977 10.1049 13.1844 10.3116C13.3918 10.5182 13.5356 10.78 13.5986 11.0659H12.8572C12.8572 10.6801 12.3986 10.4059 12.0001 10.4059C11.6015 10.4059 11.1429 10.6801 11.1429 11.0101C11.1429 11.3401 11.6915 11.4901 12.3429 11.6144C13.7229 11.8801 13.7143 12.5573 13.7143 12.8487V12.8787C13.7143 13.123 13.4872 13.9373 12.4286 14.1087V14.5716H11.5715V14.1001C11.2631 14.0323 10.9797 13.8801 10.7527 13.6607C10.5257 13.4413 10.3641 13.1631 10.2858 12.8573H11.0272C11.0272 13.1316 11.3143 13.5944 12.0001 13.5944C12.6858 13.5944 12.8572 13.2087 12.8572 12.9344C12.8572 12.6601 12.8572 12.3859 11.7729 12.2187C10.6843 12.0559 10.4015 11.3959 10.4015 11.0659C10.4015 10.7744 10.5772 10.0501 11.5715 9.89157V9.42871Z" fill="#283947"/>
<path d="M17.1428 6.38583C15.7315 5.29623 13.9972 4.7081 12.2142 4.71441C8.07423 4.71441 4.71423 7.97583 4.71423 12.0001C4.71423 16.0244 8.07423 19.2858 12.2142 19.2858C14.0957 19.2858 15.8271 18.613 17.1428 17.503L16.3285 16.5173C15.1755 17.4824 13.7178 18.0077 12.2142 18.0001C8.78566 18.0001 5.99995 15.313 5.99995 12.0001C5.99995 8.68726 8.78566 6.00012 12.2142 6.00012C13.7228 6.00012 15.2485 6.51441 16.3285 7.38012L17.1428 6.38583Z" fill="url(#paint0_linear_31_8920)"/>
</g>
<defs>
<linearGradient id="paint0_linear_31_8920" x1="10.9285" y1="4.71441" x2="10.9285" y2="19.2858" gradientUnits="userSpaceOnUse">
<stop stop-color="#27D3A2"/>
<stop offset="1" stop-color="#9388FD"/>
</linearGradient>
<clipPath id="clip0_31_8920">
<rect width="24" height="24" fill="white"/>
</clipPath>
</defs>
</svg>

<svg xmlns="http://www.w3.org/2000/svg" width="24" height="24" fill="none" viewBox="0 0 24 24"><g clip-path="url(#a)"><path fill="#F0F3FA" d="M0 0h24v24H0z"/><path fill="#657786" d="M10.971 8.143A3.98 3.98 0 0 0 8.143 12c0 1.843 1.2 3.39 2.828 3.857v-.741A3.29 3.29 0 0 1 8.83 12c0-1.444.9-2.674 2.142-3.116zm2.058 6.973A3.29 3.29 0 0 0 15.17 12c0-1.444-.9-2.674-2.142-3.116v-.74A3.98 3.98 0 0 1 15.857 12c0 1.843-1.2 3.39-2.828 3.857z"/><path fill="#283947" d="M11.572 9.429h.857V9.9a1.53 1.53 0 0 1 1.17 1.166h-.742c0-.386-.458-.66-.857-.66s-.857.274-.857.604.548.48 1.2.604c1.38.266 1.371.943 1.371 1.235v.03c0 .244-.227 1.058-1.285 1.23v.463h-.857V14.1a1.7 1.7 0 0 1-1.286-1.243h.741c0 .275.287.737.973.737s.857-.385.857-.66c0-.274 0-.548-1.084-.715-1.089-.163-1.371-.823-1.371-1.153 0-.292.175-1.016 1.17-1.174z"/><path fill="url(#b)" d="M17.143 6.386a8.02 8.02 0 0 0-4.929-1.672c-4.14 0-7.5 3.262-7.5 7.286s3.36 7.286 7.5 7.286a7.64 7.64 0 0 0 4.929-1.783l-.815-.986A6.36 6.36 0 0 1 12.214 18C8.786 18 6 15.313 6 12s2.786-6 6.214-6c1.509 0 3.034.514 4.114 1.38z"/></g><defs><linearGradient id="b" x1="10.928" x2="10.928" y1="4.714" y2="19.286" gradientUnits="userSpaceOnUse"><stop stop-color="#27D3A2"/><stop offset="1" stop-color="#9388FD"/></linearGradient><clipPath id="a"><path fill="#fff" d="M0 0h24v24H0z"/></clipPath></defs></svg>
